logo/corda.svg

<?xml version="1.0" encoding="UTF-8"?>
<svg width="512px" height="157px" viewBox="0 0 512 157" version="1.1" xmlns="http://www.w3.org/2000/svg" xmlns:xlink="http://www.w3.org/1999/xlink" preserveAspectRatio="xMidYMid">
    <title>Corda</title>
    <g>
        <path d="M477.81077,145.721695 C457.633765,164.666344 409.541766,160.63797 409.541766,123.27073 C409.541766,83.8930683 451.331432,80.8535917 477.559781,83.2455167 L477.559781,83.1074728 C476.595983,62.5062969 441.901775,67.5812942 428.049693,78.5118645 C423.717623,72.3776937 416.368666,61.4044552 413.359308,56.4499327 C429.299618,44.297046 468.23554,35.4346249 488.154026,46.6186941 C502.884516,54.8655813 512.005178,70.4321514 511.997983,87.3140482 L511.997983,154.097197 L478.736919,154.097197 L477.81077,145.721695 Z M346.947623,144.813115 C311.558176,172.542378 275.267678,146.213633 270.744857,110.543079 C265.112664,66.1130086 300.765649,30.8289771 346.664005,46.2070722 L346.664005,1.13686838e-13 L381.65187,1.13686838e-13 L381.65187,154.107237 L347.981697,154.107237 L346.947623,144.813115 Z M346.661495,107.385637 L346.661495,76.5265416 C331.49925,69.7121907 308.089508,69.4486522 305.961121,100.430733 C303.777517,132.16327 343.928225,135.388478 346.661495,107.383127 M212.357289,56.2516514 C222.600986,43.8896072 237.16755,40.3272369 256.056981,45.5645404 C253.212439,61.0204421 251.258072,71.4615839 250.193879,76.8879658 C222.969103,72.2020014 212.944603,80.2989061 212.826638,103.778926 L212.826638,154.26285 L177.851323,154.26285 L177.851323,45.1077404 L211.529025,45.1077404 L212.357289,56.2516514 Z M90.1507521,53.6539154 C80.4944861,60.6702338 73.2934304,70.549731 69.5696553,81.8901762 C59.8189699,74.8110108 46.1759073,76.9751138 39.0945727,86.7242241 C35.6947272,91.4063938 34.2947477,97.2476581 35.2027827,102.9623 C36.1108177,108.676943 39.2524403,113.796563 43.9361503,117.194287 C51.5786628,122.746601 61.9271428,122.746601 69.5696553,117.194287 C73.2934304,128.534732 80.4944861,138.414229 90.1507521,145.430548 C77.9806357,154.289153 62.789559,157.949587 47.9202609,155.606387 C33.0509627,153.263186 19.7218133,145.108349 10.8658416,132.936316 C2.00723653,120.7662 -1.65319803,105.575123 0.690002644,90.7058248 C3.03320332,75.8365267 11.1880405,62.5073773 23.3600732,53.6514055 C43.2671181,39.164942 70.2437072,39.164942 90.1507521,53.6514055 M477.426756,106.524745 C466.985615,106.65024 443.432808,102.910504 443.972435,120.07815 C444.512061,137.245797 477.426756,134.241459 477.426756,114.39325 L477.426756,106.537295 M123.602564,121.383293 C111.553521,121.352835 101.810163,111.561159 101.839244,99.5121129 C101.868385,87.4654396 111.65628,77.7224898 123.70296,77.7488046 C135.732382,77.7765341 145.469882,87.5353669 145.471234,99.5648206 C145.449076,111.625818 135.661069,121.389114 123.600054,121.380783" fill="#E0081C"></path>
    </g>
</svg>

<svg viewBox="0 0 512 157" xmlns="http://www.w3.org/2000/svg"><path fill="#E0081C" d="M477.81 145.72c-20.18 18.94-68.27 14.91-68.27-22.46 0-39.38 41.78-42.42 68.01-40.03v-.14c-.97-20.61-35.66-15.53-49.52-4.6 -4.34-6.14-11.69-17.11-14.7-22.07 15.94-12.16 54.87-21.02 74.79-9.84 14.73 8.24 23.85 23.81 23.84 40.69v66.78h-33.27l-.93-8.38Zm-130.87-.91c-35.39 27.72-71.68 1.4-76.21-34.28 -5.64-44.44 30.02-79.72 75.91-64.34V-.02h34.98v154.1h-33.68l-1.04-9.3Zm-.29-37.43V76.52c-15.17-6.82-38.58-7.08-40.71 23.9 -2.19 31.73 37.96 34.95 40.7 6.95M212.33 56.23c10.24-12.37 24.81-15.93 43.69-10.69 -2.85 15.45-4.8 25.89-5.87 31.32 -27.23-4.69-37.25 3.41-37.37 26.89v50.48H177.8V45.07h33.67l.82 11.14Zm-122.21-2.6c-9.66 7.01-16.86 16.89-20.59 28.23 -9.76-7.08-23.4-4.92-30.48 4.83 -3.4 4.68-4.8 10.52-3.9 16.23 .9 5.71 4.04 10.83 8.73 14.23 7.64 5.55 17.99 5.55 25.63 0 3.72 11.34 10.92 21.21 20.58 28.23 -12.18 8.85-27.37 12.51-42.24 10.17 -14.87-2.35-28.2-10.5-37.06-22.68C1.93 120.69-1.73 105.5.61 90.63c2.34-14.87 10.49-28.2 22.67-37.06 19.9-14.49 46.88-14.49 66.79 0m387.27 52.87c-10.45.12-34-3.62-33.46 13.55 .53 17.16 33.45 14.16 33.45-5.69v-7.86M123.5 121.28c-12.05-.04-21.8-9.83-21.77-21.88 .02-12.05 9.81-21.79 21.86-21.77 12.02.02 21.76 9.78 21.76 21.81 -.03 12.06-9.82 21.82-21.88 21.81"/></svg>
